svgs/faz.svg

<svg xmlns="http://www.w3.org/2000/svg" viewBox="0 0 192 192"><path d="M71.514 175.511c-11.033-2.51-19.325-10.254-22.211-20.745-1.108-4.027-.982-13.25.242-17.786 2.456-9.093 7.751-15.958 15.202-19.711 3.773-1.9 7.229-2.665 12.072-2.673 4.615-.007 7.764.698 11.91 2.667 4.962 2.356 7.525 4.551 13.441 11.511.33.387 1.899-4.084 2.344-6.678.376-2.191.368-3.465-.033-5.645-.966-5.244-2.398-7.257-11.745-16.509-11.674-11.555-13.794-15.485-13.32-24.689.353-6.851 2.518-11.355 8.267-17.19 3.406-3.458 7.256-6.15 11.043-7.724l1.627-.676-1.472 2.017c-5.222 7.162-5.895 13.735-2.017 19.699 1.622 2.493 9.027 10.568 9.692 10.568.208 0 .378-.531.378-1.18 0-1.51 1.11-5.258 2.178-7.354 1.233-2.421 4.43-5.636 6.812-6.849 2.513-1.28 7.202-1.741 9.612-.946 3.774 1.246 6.068 4.724 6.077 9.214.004 2.26-.207 3.089-1.244 4.899-2.689 4.688-8.346 5.993-12.707 2.931-2.445-1.716-3.514-6.51-2.17-9.726.334-.799.434-1.452.224-1.452-.824 0-3.446 2.745-4.377 4.583-1.162 2.293-1.994 6.369-1.616 7.919.147.605 1.397 2.313 2.776 3.796 6.942 7.462 9.65 15.135 8.256 23.396-1.172 6.95-5.207 12.07-15.745 19.98-3.476 2.609-7.023 5.522-7.883 6.473-1.912 2.118-4.781 6.5-5.109 7.805-.132.528-.362.959-.509.957-.148-.002-1.006-1.148-1.907-2.547-3.924-6.089-9.055-9.668-14.918-10.404-6.647-.834-12.245.926-16.065 5.051-2.778 3.001-4.004 6.029-4.303 10.624-.544 8.393 4.058 16.297 11.684 20.063 4.096 2.024 6.849 2.72 11.848 2.998 6.788.377 12.659-1.049 18.523-4.499 3.317-1.951 10.06-8.708 12.507-12.532 1.879-2.938 3.078-3.788 3.078-2.184 0 1.271-2.618 6.079-5.115 9.393-4.289 5.691-11.295 10.473-18.333 12.513-4.036 1.17-13.157 1.515-16.994.642ZM55.578 65.881c-5.858-1.916-10.646-7.338-12.228-13.845-.709-2.919-.61-9.961.182-12.96 1.658-6.272 4.151-10.488 8.684-14.685 6.757-6.256 17.122-9.279 27.993-8.163 5.859.601 10.141 1.677 19.401 4.876 24.035 8.301 27.58 9.207 34.527 8.825 6.391-.351 10.141-2.092 13.405-6.221 1.889-2.389 1.979-2.149.853 2.254-1.536 6.005-4.654 11.29-9.022 15.293-5.417 4.964-11.559 7.212-19.705 7.212-7.648 0-12.79-1.319-26.963-6.914-16.285-6.428-21.079-7.734-28.397-7.734-7.922 0-12.776 2.313-15.329 7.306-1.17 2.287-1.263 2.797-1.263 6.893 0 3.892.131 4.701 1.086 6.726 1.392 2.951 4.155 5.704 7.075 7.05 4.241 1.955 10.922 1.708 15.869-.585 1.311-.608 2.423-.895 2.637-.681.566.566-2.43 2.968-5.488 4.398-2.391 1.119-3.242 1.286-7.134 1.401-2.952.087-5.005-.061-6.183-.446Z"/></svg>

<svg
    xmlns="http://www.w3.org/2000/svg"
    viewBox="0 0 192 192"
    id="vector">
    <path
        id="path"
        d="M 71.514 175.511 C 60.481 173.001 52.189 165.257 49.303 154.766 C 48.195 150.739 48.321 141.516 49.545 136.98 C 52.001 127.887 57.296 121.022 64.747 117.269 C 68.52 115.369 71.976 114.604 76.819 114.596 C 81.434 114.589 84.583 115.294 88.729 117.263 C 93.691 119.619 96.254 121.814 102.17 128.774 C 102.5 129.161 104.069 124.69 104.514 122.096 C 104.89 119.905 104.882 118.631 104.481 116.451 C 103.515 111.207 102.083 109.194 92.736 99.942 C 81.062 88.387 78.942 84.457 79.416 75.253 C 79.769 68.402 81.934 63.898 87.683 58.063 C 91.089 54.605 94.939 51.913 98.726 50.339 L 100.353 49.663 L 98.881 51.68 C 93.659 58.842 92.986 65.415 96.864 71.379 C 98.486 73.872 105.891 81.947 106.556 81.947 C 106.764 81.947 106.934 81.416 106.934 80.767 C 106.934 79.257 108.044 75.509 109.112 73.413 C 110.345 70.992 113.542 67.777 115.924 66.564 C 118.437 65.284 123.126 64.823 125.536 65.618 C 129.31 66.864 131.604 70.342 131.613 74.832 C 131.617 77.092 131.406 77.921 130.369 79.731 C 127.68 84.419 122.023 85.724 117.662 82.662 C 115.217 80.946 114.148 76.152 115.492 72.936 C 115.826 72.137 115.926 71.484 115.716 71.484 C 114.892 71.484 112.27 74.229 111.339 76.067 C 110.177 78.36 109.345 82.436 109.723 83.986 C 109.87 84.591 111.12 86.299 112.499 87.782 C 119.441 95.244 122.149 102.917 120.755 111.178 C 119.583 118.128 115.548 123.248 105.01 131.158 C 101.534 133.767 97.987 136.68 97.127 137.631 C 95.215 139.749 92.346 144.131 92.018 145.436 C 91.886 145.964 91.656 146.395 91.509 146.393 C 91.361 146.391 90.503 145.245 89.602 143.846 C 85.678 137.757 80.547 134.178 74.684 133.442 C 68.037 132.608 62.439 134.368 58.619 138.493 C 55.841 141.494 54.615 144.522 54.316 149.117 C 53.772 157.51 58.374 165.414 66 169.18 C 70.096 171.204 72.849 171.9 77.848 172.178 C 84.636 172.555 90.507 171.129 96.371 167.679 C 99.688 165.728 106.431 158.971 108.878 155.147 C 110.757 152.209 111.956 151.359 111.956 152.963 C 111.956 154.234 109.338 159.042 106.841 162.356 C 102.552 168.047 95.546 172.829 88.508 174.869 C 84.472 176.039 75.351 176.384 71.514 175.511 Z M 55.578 65.881 C 49.72 63.965 44.932 58.543 43.35 52.036 C 42.641 49.117 42.74 42.075 43.532 39.076 C 45.19 32.804 47.683 28.588 52.216 24.391 C 58.973 18.135 69.338 15.112 80.209 16.228 C 86.068 16.829 90.35 17.905 99.61 21.104 C 123.645 29.405 127.19 30.311 134.137 29.929 C 140.528 29.578 144.278 27.837 147.542 23.708 C 149.431 21.319 149.521 21.559 148.395 25.962 C 146.859 31.967 143.741 37.252 139.373 41.255 C 133.956 46.219 127.814 48.467 119.668 48.467 C 112.02 48.467 106.878 47.148 92.705 41.553 C 76.42 35.125 71.626 33.819 64.308 33.819 C 56.386 33.819 51.532 36.132 48.979 41.125 C 47.809 43.412 47.716 43.922 47.716 48.018 C 47.716 51.91 47.847 52.719 48.802 54.744 C 50.194 57.695 52.957 60.448 55.877 61.794 C 60.118 63.749 66.799 63.502 71.746 61.209 C 73.057 60.601 74.169 60.314 74.383 60.528 C 74.949 61.094 71.953 63.496 68.895 64.926 C 66.504 66.045 65.653 66.212 61.761 66.327 C 58.809 66.414 56.756 66.266 55.578 65.881 Z"
        fill="#000000"
        stroke-width="8"/>
</svg>
